assets/img/braze_icons/check-done-01.svg

<svg fill="none" height="24" viewBox="0 0 24 24" width="24" xmlns="http://www.w3.org/2000/svg"><g fill="#801ed7"><path clip-rule="evenodd" d="m12.8385 7h-7.67704c-.52713-.00002-.98192-.00003-1.35649.03057-.39534.0323-.78856.10362-1.16694.29641-.56449.28762-1.02343.74656-1.31105 1.31105-.19279.37838-.26411.7716-.29641 1.16694-.030601.37453-.030586.82933-.03057 1.35643v7.6771c-.000016.5272-.000031.982.03057 1.3565.0323.3954.10362.7886.29641 1.167.28762.5645.74656 1.0234 1.31105 1.311.37838.1928.7716.2641 1.16694.2964.37455.0306.82928.0306 1.35639.0306h7.67714c.5271 0 .982 0 1.3565-.0306.3954-.0323.7886-.1036 1.167-.2964.5645-.2876 1.0234-.7465 1.311-1.311.1928-.3784.2641-.7716.2964-1.167.0306-.3745.0306-.8293.0306-1.3565v-7.677c0-.5272 0-.9819-.0306-1.35653-.0323-.39534-.1036-.78856-.2964-1.16694-.2876-.56449-.7465-1.02343-1.311-1.31105-.3784-.19279-.7716-.26411-1.167-.29641-.3745-.0306-.8293-.03059-1.3565-.03057zm.3686 6.2071c.3905-.3905.3905-1.0237 0-1.4142s-1.0237-.3905-1.4142 0l-3.7929 3.7929-1.29289-1.2929c-.39053-.3905-1.02369-.3905-1.41422 0-.39052.3905-.39052 1.0237 0 1.4142l2 2c.39053.3905 1.02369.3905 1.41422 0z" fill-rule="evenodd"/><path d="m18.8385 1h-7.677c-.5272-.000016-.982-.000031-1.35653.03057-.39534.0323-.78856.10362-1.16694.29641-.56449.28762-1.02343.74656-1.31105 1.31105-.19279.37838-.26411.7716-.29641 1.16694-.02743.33579-.03026.73601-.03054 1.19506l5.88087-.00002c.4886-.00011 1.0184-.00024 1.477.03723.519.0424 1.2047.14736 1.912.50775.9409.47937 1.7058 1.24427 2.1851 2.18508.3604.70732.4654 1.39304.5078 1.91206.0375.45857.0373.98837.0372 1.47707v5.8808c.459-.0003.8593-.0031 1.195-.0306.3954-.0323.7886-.1036 1.167-.2964.5645-.2876 1.0234-.7465 1.311-1.311.1928-.3784.2641-.7716.2964-1.167.0306-.3745.0306-.8292.0306-1.3564v-7.67712c0-.52711 0-.98196-.0306-1.35651-.0323-.39534-.1036-.78856-.2964-1.16694-.2876-.56449-.7465-1.02343-1.311-1.31105-.3784-.19279-.7716-.26411-1.167-.29641-.3745-.030601-.8293-.030586-1.3565-.03057z"/></g></svg>

<svg width="24" height="24" viewBox="0 0 24 24" fill="none" xmlns="http://www.w3.org/2000/svg">
<path fill-rule="evenodd" clip-rule="evenodd" d="M12.8385 7H5.16146C4.63433 6.99998 4.17954 6.99997 3.80497 7.03057C3.40963 7.06287 3.01641 7.13419 2.63803 7.32698C2.07354 7.6146 1.6146 8.07354 1.32698 8.63803C1.13419 9.01641 1.06287 9.40963 1.03057 9.80497C0.999969 10.1795 0.999984 10.6343 1 11.1614V18.8385C0.999984 19.3657 0.999969 19.8205 1.03057 20.195C1.06287 20.5904 1.13419 20.9836 1.32698 21.362C1.6146 21.9265 2.07354 22.3854 2.63803 22.673C3.01641 22.8658 3.40963 22.9371 3.80497 22.9694C4.17952 23 4.63425 23 5.16136 23H12.8385C13.3656 23 13.8205 23 14.195 22.9694C14.5904 22.9371 14.9836 22.8658 15.362 22.673C15.9265 22.3854 16.3854 21.9265 16.673 21.362C16.8658 20.9836 16.9371 20.5904 16.9694 20.195C17 19.8205 17 19.3657 17 18.8385V11.1615C17 10.6343 17 10.1796 16.9694 9.80497C16.9371 9.40963 16.8658 9.01641 16.673 8.63803C16.3854 8.07354 15.9265 7.6146 15.362 7.32698C14.9836 7.13419 14.5904 7.06287 14.195 7.03057C13.8205 6.99997 13.3657 6.99998 12.8385 7ZM13.2071 13.2071C13.5976 12.8166 13.5976 12.1834 13.2071 11.7929C12.8166 11.4024 12.1834 11.4024 11.7929 11.7929L8 15.5858L6.70711 14.2929C6.31658 13.9024 5.68342 13.9024 5.29289 14.2929C4.90237 14.6834 4.90237 15.3166 5.29289 15.7071L7.29289 17.7071C7.68342 18.0976 8.31658 18.0976 8.70711 17.7071L13.2071 13.2071Z" fill="#801ED7"/>
<path d="M18.8385 1H11.1615C10.6343 0.999984 10.1795 0.999969 9.80497 1.03057C9.40963 1.06287 9.01641 1.13419 8.63803 1.32698C8.07354 1.6146 7.6146 2.07354 7.32698 2.63803C7.13419 3.01641 7.06287 3.40963 7.03057 3.80497C7.00314 4.14076 7.00031 4.54098 7.00003 5.00003L12.8809 5.00001C13.3695 4.9999 13.8993 4.99977 14.3579 5.03724C14.8769 5.07964 15.5626 5.1846 16.2699 5.54499C17.2108 6.02436 17.9757 6.78926 18.455 7.73007C18.8154 8.43739 18.9204 9.12311 18.9628 9.64213C19.0003 10.1007 19.0001 10.6305 19 11.1192L19 17C19.459 16.9997 19.8593 16.9969 20.195 16.9694C20.5904 16.9371 20.9836 16.8658 21.362 16.673C21.9265 16.3854 22.3854 15.9265 22.673 15.362C22.8658 14.9836 22.9371 14.5904 22.9694 14.195C23 13.8205 23 13.3658 23 12.8386V5.16148C23 4.63437 23 4.17952 22.9694 3.80497C22.9371 3.40963 22.8658 3.01641 22.673 2.63803C22.3854 2.07354 21.9265 1.6146 21.362 1.32698C20.9836 1.13419 20.5904 1.06287 20.195 1.03057C19.8205 0.999969 19.3657 0.999984 18.8385 1Z" fill="#801ED7"/>
</svg>
